X: 112
T: Missa Pro fidelibus defunctis / Sanctus
N: Derived from Rue1024e-Missa_Pro_fidelibus_defunctis-Sanctus.krn
C: Pierre de la Rue
%%abc-version 2.0
%%abcx-abcm2ps-target-version 5.9.1 (29 Sep 2008)
%%abc-creator hum2abc beta
%%abcx-conversion-date 2019/02/17 08:01:14
%%abc-edited-by Jesse Rodin
%%abc-edited-by Chris Gage 05-02-2013
%%abcx-initial-encoding-date 2013/08/01/
%%humdrum-veritas 3524299984
%%humdrum-veritas-data 1126936644
%%linebreak <none>
%%barnumbers 0
L: 1/4
M: 3/1
Q: 1/2=120
V: 1 clef=treble
V: 2 clef=treble-8
V: 3 clef=treble-8
V: 4 clef=bass
V: 5 clef=bass
K: C
[V:1] A12- | 
[V:2] z4f4f4- | 
[V:3] d4d8 | 
[V:4] z12 | 
[V:5] z12 | 
[V:1] A12 | 
[V:2] f4e8 | 
[V:3] A12- | 
[V:4] z12 | 
[V:5] z12 | 
[V:1] A12- | 
[V:2] z12 | 
[V:3] A12 | 
[V:4] F,4F,8 | 
[V:5] z12 | 
[V:1] A12 | 
[V:2] e12- | 
[V:3] A12 | 
[V:4] E,12- | 
[V:5] A,,4A,,8 | 
[V:1] G12 | 
[V:2] e12 | 
[V:3] B12 | 
[V:4] E,12 | 
[V:5] E,,12 | 
[V:1] F12 | 
[V:2] A6B6 | 
[V:3] z12 | 
[V:4] D,12 | 
[V:5] z12 | 
[V:1] G12 | 
[V:2] G12 | 
[V:3] B6c6 | 
[V:4] E,12 | 
[V:5] z12 | 
[V:1] A12- | 
[V:2] c6d6 | 
[V:3] A12 | 
[V:4] F,12- | 
[V:5] z12 | 
[V:1] A8z4 | 
[V:2] A4c2d4^c2 | 
[V:3] c6A2A4 | 
[V:4] F,8E,4 | 
[V:5] z4A,,8 | 
[V:1] A6G4E2 | 
[V:2] d8z4 | 
[V:3] z12 | 
[V:4] D,8^C,4 | 
[V:5] D,,4F,,2G,,2E,,4 | 
[V:1] F8D4 | 
[V:2] d8d4 | 
[V:3] A8A4 | 
[V:4] D,8z4 | 
[V:5] D,,12 | 
[V:1] E2F4E4D2 | 
[V:2] c4A2G2F4 | 
[V:3] A12- | 
[V:4] A,,4C,4D,4 | 
[V:5] z4z4D,,4 | 
[V:1] E8z4 | 
[V:2] E6A3GF2 | 
[V:3] A8A4 | 
[V:4] C,8z4 | 
[V:5] A,,8C,2D,2 | 
[V:1] E8F4 | 
[V:2] E8z4 | 
[V:3] A12 | 
[V:4] C,8D,4 | 
[V:5] A,,8F,,4 | 
[V:1] G4E2E4C2 | 
[V:2] E12- | 
[V:3] G12 | 
[V:4] E,4B,,4C,4 | 
[V:5] E,,12- | 
[V:1] B,2C4B,2B,4 | 
[V:2] E12 | 
[V:3] G12 | 
[V:4] G,,8G,,4 | 
[V:5] E,,12 | 
[V:1] z2A,4D4C2- | 
[V:2] z2c4A4F2 | 
[V:3] A12- | 
[V:4] C,6D,3C,A,,2 | 
[V:5] F,,12- | 
[V:1] C4F6E2 | 
[V:2] F12 | 
[V:3] A12- | 
[V:4] C,12- | 
[V:5] F,,12 | 
[V:1] E4z2A4G2 | 
[V:2] c12 | 
[V:3] A12- | 
[V:4] C,4z2F,4E,2 | 
[V:5] A,,12- | 
[V:1] F2E4D4^C2 | 
[V:2] c6A6 | 
[V:3] A12- | 
[V:4] C,3D,E,2F,2E,4 | 
[V:5] A,,12 | 
[V:1] D12 ||  
[V:2] F12 ||  
[V:3] A12 ||  
[V:4] D,12 ||  
[V:5] D,,12 ||  
[V:1]  [K:C] [K:clef=treble][M:3/1]F8G4 | 
[V:2]  [K:C] [K:clef=treble-8][M:3/1]d8B4 | 
[V:3]  [K:C] [K:clef=treble-8][M:3/1]z12 | 
[V:4]  [K:C] [K:clef=bass][M:3/1]z12 | 
[V:5]  [K:C] [K:clef=bass][M:3/1]z12 | 
[V:1] A8A4- | 
[V:2] A8c4- | 
[V:3] z12 | 
[V:4] z12 | 
[V:5] z12 | 
[V:1] A4^G8 | 
[V:2] c4B8 | 
[V:3] z12 | 
[V:4] z12 | 
[V:5] z12 | 
[V:1] A8z4 | 
[V:2] A8z4 | 
[V:3] F8G4 | 
[V:4] z12 | 
[V:5] D,8B,,4 | 
[V:1] z12 | 
[V:2] z12 | 
[V:3] A8A4- | 
[V:4] z12 | 
[V:5] A,,8C,4- | 
[V:1] z12 | 
[V:2] z12 | 
[V:3] A4^G8 | 
[V:4] z12 | 
[V:5] C,4B,,8 | 
[V:1] E8E4 | 
[V:2] c8c4 | 
[V:3] A12 | 
[V:4] z12 | 
[V:5] A,,12 | 
[V:1] F8E4 | 
[V:2] d8c4 | 
[V:3] z12 | 
[V:4] z12 | 
[V:5] z4A,,8 | 
[V:1] C8z4 | 
[V:2] A8c4- | 
[V:3] z12 | 
[V:4] z12 | 
[V:5] A,,8A,,4 | 
[V:1] E8E4 | 
[V:2] c12 | 
[V:3] [M:2/1]A12 | 
[V:4] z12 | 
[V:5] C,8A,,4 | 
[V:1] G8E4 | 
[V:2] d8B4 | 
[V:3] B12 | 
[V:4] z12 | 
[V:5] G,,12- | 
[V:1] D6C2C4 | 
[V:2] G8A4 | 
[V:3] B8A4- | 
[V:4] z12 | 
[V:5] G,,8z4 | 
[V:1] A,4B,8 | 
[V:2] F4E8- | 
[V:3] A4^G8 | 
[V:4] z12 | 
[V:5] z12 | 
[V:1] A,8z4 | 
[V:2] E12 | 
[V:3] A12 | 
[V:4] z12 | 
[V:5] A,,12- | 
[V:1] C12- | 
[V:2] z4E8 | 
[V:3] A12 | 
[V:4] z12 | 
[V:5] A,,8A,,4 | 
[V:1] C4C8 | 
[V:2] F8F4 | 
[V:3] A12 | 
[V:4] z12 | 
[V:5] F,,8F,,4 | 
[V:1] B,8B,4 | 
[V:2] D4E4B4 | 
[V:3] G12- | 
[V:4] z12 | 
[V:5] G,,8E,,4- | 
[V:1] E4D2C2B,4 | 
[V:2] c4B2A2G4 | 
[V:3] G12 | 
[V:4] z12 | 
[V:5] E,,12 | 
[V:1] C4B,4C4- | 
[V:2] E8C4 | 
[V:3] G12- | 
[V:4] z12 | 
[V:5] z4E,8 | 
[V:1] C4B,8 | 
[V:2] E4F4E4- | 
[V:3] G12 | 
[V:4] z12 | 
[V:5] C,4D,4E,4 | 
[V:1] A,12- | 
[V:2] E4F8 | 
[V:3] A12- | 
[V:4] z12 | 
[V:5] A,,4D,6C,2 | 
[V:1] A,12- | 
[V:2] E4F6E2 | 
[V:3] A12- | 
[V:4] z12 | 
[V:5] C,4D,8 | 
[V:1] A,12 ||  
[V:2] E12 & c12 ||  
[V:3] A12 ||  
[V:4] z12 ||  
[V:5] A,,12 ||  
[V:1]  [K:C] [K:clef=treble][M:3/1]z12 | 
[V:2]  [K:C] [K:clef=treble-8][M:3/1]d8d4 | 
[V:3]  [K:C] [K:clef=treble-8][M:3/1]F8G4 | 
[V:4]  [K:C] [K:clef=bass][M:3/1]D,8D,4 | 
[V:5]  [K:C] [K:clef=bass][M:3/1]D,6C,2B,,4 | 
[V:1] A6G2F4 | 
[V:2] c12- | 
[V:3] A12- | 
[V:4] E,8F,4 | 
[V:5] A,,8z2A,,2- | 
[V:1] E8D4 | 
[V:2] c4c4A2d2 | 
[V:3] A8z4 | 
[V:4] C,2A,3G,E,2F,4 | 
[V:5] A,,2A,,4C,4B,,2 | 
[V:1] E2F3EC2D4 | 
[V:2] c2_B4A4G2 | 
[V:3] z12 | 
[V:4] z2F,4E,4D,2 | 
[V:5] C,2D,2A,,4_B,,4 | 
[V:1] C8z4 | 
[V:2] A4z2A4c2 | 
[V:3] A12 | 
[V:4] E,12- | 
[V:5] A,,12- | 
[V:1] z2A4c2A2c2- | 
[V:2] A2c4A4F2 | 
[V:3] A12- | 
[V:4] E,4F,8 | 
[V:5] A,,4F,,8 | 
[V:1] c2A4G4F2 | 
[V:2] c4e4d4 | 
[V:3] A12 | 
[V:4] C,8F,4 | 
[V:5] F,,4C,4D,4 | 
[V:1] G2E4D2C4 | 
[V:2] B2c2G4z2G2- | 
[V:3] G12- | 
[V:4] D,2C,2D,4E,4 | 
[V:5] G,,2C,4B,,2C,4 | 
[V:1] B,2E4D4G2 | 
[V:2] G2B4B4c2 | 
[V:3] G12 | 
[V:4] D,2B,,4G,,2G,,4 | 
[V:5] G,,8E,,4 | 
[V:1] F3EE2D4^C2 | 
[V:2] d2D2E2F2E4 | 
[V:3] A12- | 
[V:4] z2D,2C,2B,,2A,,4- | 
[V:5] D,,4A,,8 | 
[V:1] D12 ||  
[V:2] D12 ||  
[V:3] A12 ||  
[V:4] A,,12 ||  
[V:5] D,,12 ||  
[V:1]  [K:C] [K:clef=treble][M:3/1]z12 | 
[V:2]  [K:C] [K:clef=treble-8][M:3/1]z12 | 
[V:3]  [K:C] [K:clef=treble-8][M:3/1]E8F4 | 
[V:4]  [K:C] [K:clef=bass][M:3/1]z12 | 
[V:5]  [K:C] [K:clef=bass][M:3/1]A,,12 | 
[V:1] z12 | 
[V:2] z12 | 
[V:3] E4C4D4 | 
[V:4] z12 | 
[V:5] A,,8B,,4 | 
[V:1] z12 | 
[V:2] A8B4 | 
[V:3] E4D4B,4 | 
[V:4] z4z4E,4- | 
[V:5] A,,4F,,4G,,4 | 
[V:1] z12 | 
[V:2] A4F4G4 | 
[V:3] C8z4 | 
[V:4] E,4F,4E,4 | 
[V:5] A,,8z4 | 
[V:1] z12 | 
[V:2] A8G4- | 
[V:3] z12 | 
[V:4] C,4D,4E,4- | 
[V:5] z12 | 
[V:1] z12 | 
[V:2] G4G4A4 | 
[V:3] C4E4F4 | 
[V:4] E,4C,8 | 
[V:5] z12 | 
[V:1] z12 | 
[V:2] B4c6B2 | 
[V:3] G8^F4 | 
[V:4] B,,4A,,6D,2 | 
[V:5] z12 | 
[V:1] z12 | 
[V:2] B8z4 | 
[V:3] G8z4 | 
[V:4] D,12- | 
[V:5] [M:2/1]G,,12- | 
[V:1] z12 | 
[V:2] G4B4c4 | 
[V:3] G12- | 
[V:4] D,8z4 | 
[V:5] G,,12 | 
[V:1] z12 | 
[V:2] d12 | 
[V:3] G4F8 | 
[V:4] D,8D,4 | 
[V:5] _B,,12- | 
[V:1] z12 | 
[V:2] d6c2A4 | 
[V:3] F8E4- | 
[V:4] D,6A,,2C,2D,2 | 
[V:5] B,,6A,,6- | 
[V:1] z12 | 
[V:2] c8A4 | 
[V:3] E4F8 | 
[V:4] E,4C,6D,2 | 
[V:5] A,,12 | 
[V:1] z12 | 
[V:2] B4G6A2 | 
[V:3] G8E4 | 
[V:4] D,8z4 | 
[V:5] G,,12 | 
[V:1] z12 | 
[V:2] A4B8 | 
[V:3] F4G8 | 
[V:4] D,8E,4 | 
[V:5] z6G,,6 | 
[V:1] z12 | 
[V:2] A6B2c4 | 
[V:3] C8z4 | 
[V:4] F,8E,4 | 
[V:5] [M:3/1]F,,6G,,2A,,4 | 
[V:1] z12 | 
[V:2] d4_B6A2 | 
[V:3] G12- | 
[V:4] D,12- | 
[V:5] _B,,4G,,4B,,4- | 
[V:1] z12 | 
[V:2] G8^F4 | 
[V:3] G4A8 | 
[V:4] D,4C,8 | 
[V:5] B,,4A,,8 | 
[V:1] z12 | 
[V:2] G8z4 | 
[V:3] B8G4 | 
[V:4] D,8z4 | 
[V:5] G,,8z4 | 
[V:1] z12 | 
[V:2] B6c2d4 | 
[V:3] G12- | 
[V:4] D,8D,4 | 
[V:5] G,,6A,,2B,,4 | 
[V:1] z12 | 
[V:2] e4c4d4- | 
[V:3] G4A8 | 
[V:4] C,4A,,4D,4- | 
[V:5] C,4F,,4_B,,4- | 
[V:1] z12 | 
[V:2] d2G2c8 | 
[V:3] G6F2F4 | 
[V:4] D,4C,8 | 
[V:5] B,,4A,,8 | 
[V:1] z12 | 
[V:2] B4G4A4 | 
[V:3] G4E6F2 | 
[V:4] D,4B,,4C,4 | 
[V:5] G,,8z4 | 
[V:1] z12 | 
[V:2] B4G2A4G2 | 
[V:3] G4E6D2 | 
[V:4] G,,4C,8 | 
[V:5] z12 | 
[V:1] z12 | 
[V:2] G8^F4 | 
[V:3] D8C4 | 
[V:4] B,,4A,,6B,,2 | 
[V:5] z12 | 
[V:1] z12 ||  
[V:2] G12 ||  
[V:3] D12 ||  
[V:4] B,,12 ||  
[V:5] G,,12 ||  



